packages/tokens/icons/userStatusDisabled/size16Px.svg

<svg viewBox="0 0 16 16" fill="none" xmlns="http://www.w3.org/2000/svg" width="1em" height="1em"><path d="M1.5 12.5L1.5 11.5C1.5 10.3954 2.39543 9.5 3.5 9.5H4.5" stroke="currentColor" stroke-linecap="round" stroke-linejoin="round"/><path d="M4.5 7.5C5.60457 7.5 6.5 6.60457 6.5 5.5C6.5 4.39543 5.60457 3.5 4.5 3.5C3.39543 3.5 2.5 4.39543 2.5 5.5C2.5 6.60457 3.39543 7.5 4.5 7.5Z" stroke="currentColor" stroke-linecap="round" stroke-linejoin="round"/><path d="M7.5 8C7.5 7.17157 8.17157 6.5 9 6.5L13 6.5C13.8284 6.5 14.5 7.17157 14.5 8V12C14.5 12.8284 13.8284 13.5 13 13.5H9C8.17157 13.5 7.5 12.8284 7.5 12L7.5 8Z" stroke="currentColor"/><path d="M9.5 11.5L12.5 8.5M12.5 11.5L9.5 8.5" stroke="currentColor" stroke-linecap="round"/></svg>

<svg xmlns="http://www.w3.org/2000/svg" fill="none" viewBox="0 0 16 16" width="1em" height="1em"><path stroke="currentColor" stroke-linecap="round" stroke-linejoin="round" d="M1.5 12.5v-1a2 2 0 0 1 2-2h1m0-2a2 2 0 1 0 0-4 2 2 0 0 0 0 4Z"/><path stroke="currentColor" d="M7.5 8A1.5 1.5 0 0 1 9 6.5h4A1.5 1.5 0 0 1 14.5 8v4a1.5 1.5 0 0 1-1.5 1.5H9A1.5 1.5 0 0 1 7.5 12V8Z"/><path stroke="currentColor" stroke-linecap="round" d="m9.5 11.5 3-3m0 3-3-3"/></svg>
